icons/folder-settings-fill.svg

<svg xmlns="http://www.w3.org/2000/svg" width="24" height="24" fill="none"><g clip-path="url(#a)"><g><path fill="#121212" d="M12.414 5H21C21.2652 5 21.5196 5.10536 21.7071 5.29289C21.8946 5.48043 22 5.73478 22 6V20C22 20.2652 21.8946 20.5196 21.7071 20.7071C21.5196 20.8946 21.2652 21 21 21H3C2.73478 21 2.48043 20.8946 2.29289 20.7071C2.10536 20.5196 2 20.2652 2 20V4C2 3.73478 2.10536 3.48043 2.29289 3.29289C2.48043 3.10536 2.73478 3 3 3H10.414L12.414 5ZM8.591 13.809L7.6 14.381L8.6 16.112L9.591 15.54C9.984 15.911 10.463 16.193 10.996 16.351V17.496H12.995V16.35C13.5201 16.1935 14.001 15.9157 14.399 15.539L15.39 16.111L16.39 14.381L15.399 13.808C15.5257 13.2748 15.5257 12.7192 15.399 12.186L16.389 11.613L15.39 9.883L14.398 10.455C14.0001 10.078 13.5192 9.79983 12.994 9.643V8.5H10.995V9.644C10.4698 9.80083 9.98885 10.079 9.591 10.456L8.6 9.883L7.6 11.615L8.591 12.187C8.46429 12.7202 8.46429 13.2758 8.591 13.809ZM11.995 14.497C11.7935 14.5044 11.5927 14.471 11.4044 14.399C11.2161 14.327 11.0442 14.2178 10.8991 14.0778C10.754 13.9379 10.6386 13.7702 10.5597 13.5847C10.4809 13.3991 10.4402 13.1996 10.4402 12.998C10.4402 12.7964 10.4809 12.5969 10.5597 12.4113C10.6386 12.2258 10.754 12.0581 10.8991 11.9182C11.0442 11.7782 11.2161 11.669 11.4044 11.597C11.5927 11.525 11.7935 11.4916 11.995 11.499C12.3831 11.5132 12.7505 11.6773 13.0201 11.9569C13.2896 12.2364 13.4402 12.6097 13.4402 12.998C13.4402 13.3863 13.2896 13.7596 13.0201 14.0391C12.7505 14.3187 12.3831 14.4828 11.995 14.497Z"/></g></g><defs><clipPath id="a"><rect width="24" height="24" fill="white"/></clipPath></defs></svg>

<svg width="24" height="24" fill="none" xmlns="http://www.w3.org/2000/svg"><g clip-path="url(#a)"><path d="M12.414 5H21a1 1 0 0 1 1 1v14a1 1 0 0 1-1 1H3a1 1 0 0 1-1-1V4a1 1 0 0 1 1-1h7.414l2 2Zm-3.823 8.809-.991.572 1 1.731.991-.572c.393.371.872.653 1.405.811v1.145h1.999V16.35a3.494 3.494 0 0 0 1.404-.811l.991.572 1-1.73-.991-.573a3.508 3.508 0 0 0 0-1.622l.99-.573-.999-1.73-.992.572a3.495 3.495 0 0 0-1.404-.812V8.5h-1.999v1.144a3.495 3.495 0 0 0-1.404.812L8.6 9.883l-1 1.732.991.572a3.508 3.508 0 0 0 0 1.622Zm3.404.688a1.5 1.5 0 1 1-.11-2.997 1.5 1.5 0 0 1 .11 2.997Z" /></g><defs><clipPath id="a"><path fill="#fff" d="M0 0h24v24H0z"/></clipPath></defs></svg>
